public/images/enterprise.svg

<svg width="480" height="480" viewBox="0 0 500 500" xmlns="http://www.w3.org/2000/svg">
    <path d="M168 160h16v16h-16v-16zm0 32h16v16h-16v-16zm0 32h16v16h-16v-16zm0 32h16v16h-16v-16zm32-96h16v16h-16v-16zm0 32h16v16h-16v-16zm0 32h16v16h-16v-16zm0 32h16v16h-16v-16zm32-96h16v16h-16v-16zm0 32h16v16h-16v-16zm0 32h16v16h-16v-16zm0 32h16v16h-16v-16zm32-96h16v16h-16v-16zm-64-32h16v16h-16v-16zm32 0h16v16h-16v-16zm32 0h16v16h-16v-16zm0 64h16v16h-16v-16zm0 32h16v16h-16v-16zm0 32h16v16h-16v-16zm32-96h16v16h-16v-16zm0 32h16v16h-16v-16zm0 32h16v16h-16v-16zm0 32h16v16h-16v-16zm176.009-136a7.995 7.995 0 017.991 8v288.009a7.995 7.995 0 01-8 7.991h-16.723c.465 2.642.707 5.318.723 8v40.009a7.995 7.995 0 01-8 7.991H31.991A7.995 7.995 0 0124 472v-40c.017-2.682.259-5.358.723-8H7.991A7.995 7.995 0 010 416V128v-.009A7.995 7.995 0 018 120h120V8v-.009A7.995 7.995 0 01136 0h208.009A7.995 7.995 0 01352 8v112h120.009zM344 344c-.011-8.832-7.168-15.989-16-16-8.837 0-16 7.163-16 16s7.163 16 16 16 16-7.163 16-16zm-192-16c-8.832.011-15.989 7.168-16 16 0 8.837 7.163 16 16 16s16-7.163 16-16-7.163-16-16-16zm-48 136v-32c0-17.673-14.327-32-32-32-17.673 0-32 14.327-32 32v32h64zm-48-96c.011 8.832 7.168 15.989 16 16 8.837 0 16-7.163 16-16s-7.163-16-16-16-16 7.163-16 16zm49.212 29.425a48.136 48.136 0 0123.64-31.449c-11.467-11.881-11.838-30.593-.852-42.92V136H16v271.999h14.494a48.31 48.31 0 0118.358-18.024c-11.803-12.365-11.803-31.824 0-44.189 12.203-12.784 32.459-13.256 45.243-1.053 12.784 12.203 13.255 32.459 1.053 45.243a48.225 48.225 0 0110.064 7.449zM184 464v-56c0-17.673-14.327-32-32-32-17.673 0-32 14.327-32 32v56h64zm96 0v-56c0-22.091-17.909-40-40-40s-40 17.909-40 40v56h80zm-64-136c.014 13.249 10.751 23.986 24 24 13.255 0 24-10.745 24-24s-10.745-24-24-24-24 10.745-24 24zm72.722 52.495a48.318 48.318 0 0116.13-14.519A31.916 31.916 0 01296 343.831c.047-17.627 14.374-31.878 32-31.831 2.704.035 5.393.417 8 1.136V16H144v297.136a31.77 31.77 0 0130.637 7.913c12.548 12.265 12.776 32.38.511 44.927a48.318 48.318 0 0116.13 14.519 56.35 56.35 0 0122.953-22.16 39.997 39.997 0 01-4.826-4.826c-14.231-16.897-12.071-42.132 4.826-56.364 16.897-14.231 42.132-12.071 56.364 4.826 14.231 16.897 12.071 42.132-4.826 56.364a56.35 56.35 0 0122.953 22.16zM360 432v-24c0-17.673-14.327-32-32-32-17.673 0-32 14.327-32 32v56h64v-32zm80 32v-32c0-17.673-14.327-32-32-32-17.673 0-32 14.327-32 32v32h64zm-48-96c.011 8.832 7.168 15.989 16 16 8.837 0 16-7.163 16-16s-7.163-16-16-16-16 7.163-16 16zm72.001 40V136h-112v187.055c10.986 12.327 10.614 31.039-.853 42.92a48.133 48.133 0 0123.64 31.449 48.199 48.199 0 0110.064-7.449c-11.803-12.365-11.803-31.824 0-44.189 12.203-12.784 32.459-13.255 45.243-1.053 12.784 12.203 13.255 32.459 1.053 45.243A48.31 48.31 0 01449.506 408h14.495zM376 184h16v128h-16V184zm48 0h16v128h-16V184zm-384 0h16v128H40V184zm48 0h16v128H88V184zM288.009 32A7.995 7.995 0 01296 40v64.009a7.995 7.995 0 01-8 7.991h-96.009a7.995 7.995 0 01-7.991-8V40v-.009A7.995 7.995 0 01192 32h96.009zM280 96V48h-80v48h80z" fill-rule="nonzero" fill="#007cc3"/>
</svg>

<?xml version="1.0" encoding="UTF-8"?>
<svg width="480px" height="480px" viewBox="0 0 480 480" version="1.1" xmlns="http://www.w3.org/2000/svg" xmlns:xlink="http://www.w3.org/1999/xlink">
    <g stroke="none" stroke-width="1" fill="#007cc3" fill-rule="evenodd">
        <g fill="#007cc3" fill-rule="nonzero">
            <path d="M168,160 L184,160 L184,176 L168,176 L168,160 Z M168,192 L184,192 L184,208 L168,208 L168,192 Z M168,224 L184,224 L184,240 L168,240 L168,224 Z M168,256 L184,256 L184,272 L168,272 L168,256 Z M200,160 L216,160 L216,176 L200,176 L200,160 Z M200,192 L216,192 L216,208 L200,208 L200,192 Z M200,224 L216,224 L216,240 L200,240 L200,224 Z M200,256 L216,256 L216,272 L200,272 L200,256 Z M232,160 L248,160 L248,176 L232,176 L232,160 Z M232,192 L248,192 L248,208 L232,208 L232,192 Z M232,224 L248,224 L248,240 L232,240 L232,224 Z M232,256 L248,256 L248,272 L232,272 L232,256 Z M264,160 L280,160 L280,176 L264,176 L264,160 Z M200,128 L216,128 L216,144 L200,144 L200,128 Z M232,128 L248,128 L248,144 L232,144 L232,128 Z M264,128 L280,128 L280,144 L264,144 L264,128 Z M264,192 L280,192 L280,208 L264,208 L264,192 Z M264,224 L280,224 L280,240 L264,240 L264,224 Z M264,256 L280,256 L280,272 L264,272 L264,256 Z M296,160 L312,160 L312,176 L296,176 L296,160 Z M296,192 L312,192 L312,208 L296,208 L296,192 Z M296,224 L312,224 L312,240 L296,240 L296,224 Z M296,256 L312,256 L312,272 L296,272 L296,256 Z M472.009,120 C476.425,120.003 480.003,123.584 480,128 L480,416 C480,416.003 480,416.006 480,416.009 C479.997,420.425 476.416,424.003 472,424 L455.277,424 C455.742,426.642 455.984,429.318 456,432 L456,472 C456,472.003 456,472.006 456,472.009 C455.997,476.425 452.416,480.003 448,480 L32,480 C31.997,480 31.994,480 31.991,480 C27.575,479.997 23.997,476.416 24,472 L24,432 C24.017,429.318 24.259,426.642 24.723,424 L8,424 C7.997,424 7.994,424 7.991,424 C3.575,423.997 -0.003,420.416 -1.36022948e-14,416 L-1.36022948e-14,128 C-1.36022948e-14,127.997 -1.36022948e-14,127.994 -1.36022948e-14,127.991 C0.003,123.575 3.584,119.997 8,120 L128,120 L128,8 C128,7.997 128,7.994 128,7.991 C128.003,3.575 131.584,-0.003 136,-1.36022948e-14 L344,-1.36022948e-14 C344.003,-1.36022948e-14 344.006,-1.36022948e-14 344.009,-1.36022948e-14 C348.425,0.003 352.003,3.584 352,8 L352,120 L472,120 C472.003,120 472.006,120 472.009,120 Z M344,344 C343.989,335.168 336.832,328.011 328,328 C319.163,328 312,335.163 312,344 C312,352.837 319.163,360 328,360 C336.837,360 344,352.837 344,344 Z M152,328 C143.168,328.011 136.011,335.168 136,344 C136,352.837 143.163,360 152,360 C160.837,360 168,352.837 168,344 C168,335.163 160.837,328 152,328 Z M104,464 L104,432 C104,414.327 89.673,400 72,400 C54.327,400 40,414.327 40,432 L40,464 L104,464 Z M56,368 C56.011,376.832 63.168,383.989 72,384 C80.837,384 88,376.837 88,368 C88,359.163 80.837,352 72,352 C63.163,352 56,359.163 56,368 Z M105.212,397.425 C108.253,384.053 116.852,372.613 128.852,365.976 C117.385,354.095 117.014,335.383 128,323.056 L128,136 L16,136 L16,407.999 L30.494,407.999 C34.872,400.442 41.216,394.213 48.852,389.975 C37.049,377.61 37.049,358.151 48.852,345.786 C61.055,333.002 81.311,332.53 94.095,344.733 C106.879,356.936 107.35,377.192 95.148,389.976 C98.812,392.011 102.195,394.515 105.212,397.425 Z M184,464 L184,408 C184,390.327 169.673,376 152,376 C134.327,376 120,390.327 120,408 L120,464 L184,464 Z M280,464 L280,408 C280,385.909 262.091,368 240,368 C217.909,368 200,385.909 200,408 L200,464 L280,464 Z M216,328 C216.014,341.249 226.751,351.986 240,352 C253.255,352 264,341.255 264,328 C264,314.745 253.255,304 240,304 C226.745,304 216,314.745 216,328 Z M288.722,380.495 C292.928,374.495 298.444,369.53 304.852,365.976 C299.151,360.016 295.978,352.079 296,343.831 C296.047,326.204 310.374,311.953 328,312 C330.704,312.035 333.393,312.417 336,313.136 L336,16 L144,16 L144,313.136 C154.893,310.139 166.558,313.151 174.637,321.049 C187.185,333.314 187.413,353.429 175.148,365.976 C181.556,369.53 187.072,374.495 191.278,380.495 C196.635,371.051 204.605,363.356 214.231,358.335 C212.487,356.866 210.873,355.252 209.405,353.509 C195.174,336.612 197.334,311.377 214.231,297.145 C231.128,282.914 256.363,285.074 270.595,301.971 C284.826,318.868 282.666,344.103 265.769,358.335 C275.395,363.356 283.365,371.051 288.722,380.495 Z M360,432 L360,408 C360,390.327 345.673,376 328,376 C310.327,376 296,390.327 296,408 L296,464 L360,464 L360,432 Z M440,464 L440,432 C440,414.327 425.673,400 408,400 C390.327,400 376,414.327 376,432 L376,464 L440,464 Z M392,368 C392.011,376.832 399.168,383.989 408,384 C416.837,384 424,376.837 424,368 C424,359.163 416.837,352 408,352 C399.163,352 392,359.163 392,368 Z M464.001,408 L464.001,136 L352.001,136 L352.001,323.055 C362.987,335.382 362.615,354.094 351.148,365.975 C363.148,372.612 371.748,384.052 374.788,397.424 C377.804,394.514 381.188,392.01 384.852,389.975 C373.049,377.61 373.049,358.151 384.852,345.786 C397.055,333.002 417.311,332.531 430.095,344.733 C442.879,356.936 443.35,377.192 431.148,389.976 C438.784,394.214 445.128,400.443 449.506,408 L464.001,408 Z M376,184 L392,184 L392,312 L376,312 L376,184 Z M424,184 L440,184 L440,312 L424,312 L424,184 Z M40,184 L56,184 L56,312 L40,312 L40,184 Z M88,184 L104,184 L104,312 L88,312 L88,184 Z M288.009,32 C292.425,32.003 296.003,35.584 296,40 L296,104 C296,104.003 296,104.006 296,104.009 C295.997,108.425 292.416,112.003 288,112 L192,112 C191.997,112 191.994,112 191.991,112 C187.575,111.997 183.997,108.416 184,104 L184,40 C184,39.997 184,39.994 184,39.991 C184.003,35.575 187.584,31.997 192,32 L288,32 C288.003,32 288.006,32 288.009,32 Z M280,96 L280,48 L200,48 L200,96 L280,96 Z" id="Combined-Shape"></path>
        </g>
    </g>
</svg>
